X: 7480
T: Co-dhuibh Bhithinn Togarrach
R: reel
M: 4/4
K: Gmixolydian
|:G2 GA Bz B2-|BA Bd ee dB|~G3 A ~B3 d|ee dB ~A3 B:|
|:d2 ed ~G3B|d2 ed BA AB|d2 ed ~G3 d|ee dB ~A3 B:|

